X:56
T:Robin Adair. JGi.056
O:Tealby,Lincolnshire
M:3/4
L:1/8
Q:3/4=30
S:Joshua Gibbons MS,1823,Tealby,Lincs.
R:air
O:Tealby,Lincolnshire
Z:VMP/R.Greig, 2009
K:D
A2B2c2|d3ef2|A<d B<d c<e|d4z2|A2B2c2|d2e2f2|A<d B<d c<e|d4z2|f2f2f2|
a3AA2|f2fa (3gec|d3BA2|a2{ga}gfed|d2ef2{gedecB}|A<d B<d c<e|d4z2|{fegfedcB}|A<d B<d c<e|d4||

